X:1
T:Title
%%score { ( 1 4 ) | ( 2 3 ) }
L:1/8
Q:1/4=92
M:4/4
K:F
V:1 treble nm="Grand Piano"
V:4 treble 
V:2 bass 
V:3 bass 
V:1
 [CA]3 _A B3 =A | [CA]GFE [B,G]2 F2 | [B,G]2 ^F2 G2 E2 | [A,F]2 GF/G/ A4 | A3 _A B3 =A | %5
w: J.~H.~Tenney * * *|||||
 [_Ec]BAG [A,F]2 =E2 | F>G AA [Ec]BAG | [A,F]E A>G [A,F]4 | [EG]4 [GB]4 | %9
w: ||||
 [Bd][Ac][Ac][FA] [Ac][GB] [EG]2 | [EG]4 [GB]4 | [FBd][FAc][FAc][D_A=B] [C=Ac]4 | [FA]4 [FB]4 | %13
w: ||||
 .[_Ec]2 .[CA]2 [CF]2 [C=E]2 | A,A,A,[CFA] F-[DFd][DAc][DGB] | %15
w: ||
 z2 [B,G]2 z4[Q:1/4=89][Q:1/4=86][Q:1/4=83][Q:1/4=81][Q:1/4=78][Q:1/4=75][Q:1/4=72] |] %16
w: |
V:2
 z2 z =B, D3 C | z B,A,G, z2 A,2 | z2 A,2 B,2 G,2 | z2 B,A,/B,/[K:treble] C4 | C3 =B, D3 C | %5
 z DCB, z2 G,2 | A,>B,[K:treble] CF[K:bass] z DCB, | z G, C>B, F,,4 | C,C,C,C, C,C,C,C, | %9
 [F,F][F,F][F,F][F,C] [C,C][C,C][C,C][C,C] | [C,C]C,C,C, C,C,C,C, | F,F,F,F, F,4 | %12
 F,F,F,F, F,F,F,F, | B,,B,,B,,B,, C,C,C,C, | F,F,F,F, B,,B,,B,,B,, | C,C, C,>C, F,,4 |] %16
V:3
 F,,8 | C,4 F,,4 | C,8 | F,,8[K:treble] | x8 | B,,4 C,4 | z4[K:treble][K:bass] B,,4 | C,4 z4 | x8 | %9
 x8 | x8 | x8 | x8 | x8 | x8 | x8 |] %16
V:4
 x8 | x8 | x8 | x8 | x8 | x8 | x8 | x8 | CCC[CFA] CCC[EBd] | x8 | z CC[CFA] CCC[EBd] | x8 | %12
 CCC[=B,F_A] DDD[CF=A] | F-[DFB]D-[B,DG] A,G,G,B, | [CF]4 .[DG]2 z2 | %15
 [CFA][A,CF] C->[G,CE] [A,CF]4 |] %16

